X:13
T:Silver Wedding (Fon der Choope)
Z:Jack Campin, http://www.campin.me.uk
F:http://www.campin.me.uk/Music/EdinburghKlezmer.abc
S:Abe Elenkrig's Yiddishe Orchestra, 1913
M:4/4
L:1/8
Q:1/4=144
K:DMin
|:Ade|f4 zAde |f4 zAde |f2 ~ed ({d}e)e   d^c| ^c4             z
  Acd|e4 zA^cd|e4 zA^cd|e3   g   (3gfe (3fed|(3ed^c (3d=cB [1 A  :|\
                                                           [2 A3z||
%
|:AB^cd efga|b8        |({^g}a8)                   |({^f}g8)|({e}f8)|
  ez^cz dzz2|ez^cz dzef|   (3gfe (3fed (3ed^c (3dcB|     A8:|
%
|:(3^cde (3dcB AB c2|  zA^ce        ~dc~BA|\
  (3^cde (3dcB AB c2|(3ed^c (3dcB [1 A3z :|\
                                  [2 A   ||
%
"^last time A part, once"\
Ade|f4 z Ade|f4 zAde |f2 ~ed ({d}e)e d^c|^c4  z
Acd|e4 z^cde|e4 zA^cd|e3   g   (3fed a2 | d'4 a4|d6 z2|]
